ir/key-alt-remove.svg

<svg stroke-width="1.5" viewBox="0 0 24 24" fill="none" xmlns="http://www.w3.org/2000/svg" height="1em" width="1em">
  <path d="M15.8709 20.1213L17.9922 18M20.1135 15.8787L17.9922 18M17.9922 18L15.8709 15.8787M17.9922 18L20.1135 20.1213" stroke="currentColor" stroke-linecap="round" stroke-linejoin="round"/>
  <path d="M12.4123 10.3431C13.9744 11.9052 16.5071 11.9052 18.0692 10.3431C19.6313 8.78105 19.6313 6.24839 18.0692 4.68629C16.5071 3.1242 13.9744 3.1242 12.4123 4.68629C10.8502 6.24839 10.8502 8.78105 12.4123 10.3431ZM12.4123 10.3431L3.92706 18.8284L6.04838 20.9497" stroke="currentColor" stroke-linecap="round" stroke-linejoin="round"/>
  <path d="M6.75549 16L8.87681 18.1213" stroke="currentColor" stroke-linecap="round" stroke-linejoin="round"/>
</svg>

<svg stroke-width="1.5" viewBox="0 0 24 24" fill="none" xmlns="http://www.w3.org/2000/svg" height="1em" width="1em">
  <path d="M15.87 20.121 17.993 18m2.121-2.121L17.993 18m0 0-2.122-2.121M17.992 18l2.121 2.121m-7.701-9.778a4 4 0 1 0 5.657-5.657 4 4 0 0 0-5.657 5.657Zm0 0-8.485 8.485 2.121 2.122M6.755 16l2.122 2.121" stroke="currentColor" stroke-linecap="round" stroke-linejoin="round"/>
</svg>
